svgs/sharp-regular/inbox-full.svg

<svg xmlns="http://www.w3.org/2000/svg" viewBox="0 0 512 512"><!--! Font Awesome Pro 6.6.0 by @fontawesome - https://fontawesome.com License - https://fontawesome.com/license (Commercial License) Copyright 2024 Fonticons, Inc. --><path d="M48 432l0-96 81.2 0 25.4 50.7 6.6 13.3 14.8 0 160 0 14.8 0 6.6-13.3L382.8 336l81.2 0 0 96L48 432zM402.5 80l52 208L368 288l-14.8 0-6.6 13.3L321.2 352l-130.3 0-25.4-50.7L158.8 288 144 288l-86.5 0 52-208 293 0zM0 320L0 432l0 48 48 0 416 0 48 0 0-48 0-112L440 32 72 32 0 320zM184 128l-24 0 0 48 24 0 144 0 24 0 0-48-24 0-144 0zm-32 80l-24 0 0 48 24 0 208 0 24 0 0-48-24 0-208 0z"/></svg>

<svg xmlns="http://www.w3.org/2000/svg" viewBox="0 0 512 512"><!--! Font Awesome Pro 6.4.2 by @fontawesome - https://fontawesome.com License - https://fontawesome.com/license (Commercial License) Copyright 2023 Fonticons, Inc. --><path d="M48 432V336h81.2l25.4 50.7 6.6 13.3H176 336h14.8l6.6-13.3L382.8 336H464v96H48zM402.5 80l52 208H368 353.2l-6.6 13.3L321.2 352H190.8l-25.4-50.7L158.8 288H144 57.5l52-208h293zM0 320V432v48H48 464h48V432 320L440 32H72L0 320zM184 128H160v48h24H328h24V128H328 184zm-32 80H128v48h24H360h24V208H360 152z"/></svg>
